X:1
T:[ID 2v-9 (=2-135)]
T:[ID 2v-9 (=2-135)]
T:Bezeichnung standardisiert: Sonata Allegro Sonata Allegro
T:Urheber unbekannt Datum in der hier transkribierten schriftlichen Quelle: 1767
C:Urheber unbekannt
C:Datum in der hier transkribierten schriftlichen Quelle: 1767
L:1/8
M:2/4
K:D
V:1 bass 
V:1
 z3/2 | z D,A,A,, | D,2 z C, | D,2 A,A,, | D,(A,/4G,/4F,/4E,/4) D,2 | z D,A,A,, | D,2 z C, | %7
 D,B,, E,E,, | A,,/A,/A,,/A,/ !//![A,,A,]2 | !//![A,,A,]4 | D,2 E,E,, | !//![A,,A,]4 | %12
 !//![A,,A,]4 | D,2 E,E,, | A,,(E,/4D,/4C,/4B,,/4) A,,2 | z2 z A,, | E,(B,/4A,/4G,/4F,/4) E,2 | %17
 z2 z E, | A,,3 (3E,/C,/E,/ | A,,3 (3A,/F,/A,/ | C,3 (3C/A,/C/ | A,E,C,A,, | E,/E,/E,/E,/ E,,2 | %23
 A,,3 (3E,/C,/E,/ | A,,3 (3A,/F,/A,/ | C,3 (3C/A,/C/ | A,E, C,A,, | E,/E,/E,/E,/ !//!E,,2 | %28
 A,,2 z2 | z A,, E,E,, | A,,2 z/ :: z3/2 | z A,,E,E,, | A,,2 z ^G,, | A,,2 E,E,, | %35
"^Fortsetzung fehlt" x4 | %36

